X:407
T:Fergal O'Gara's
T:Farrell O'Gara
R:reel
S:Session at Shoot the Crows, Sligo, 1992
D:Molloy, Peoples, Brady
Z:id:hn-reel-407
M:C|
K:D
~A,3B, DEFA|BFAF EFGA|dBcA BdAF|GEFD EDB,D|
~A,3B, DEFA|BFAF EFGA|dBcA BdAF|1 GFEG FDDB,:|2 GFEG FDDe||
fd~d2 fdge|fdgf edBc|dBBA Bcde|fdgf e2de|
fd~d2 fdge|fdgf edBc|dBBA BdAF|GFEG FDDe|
fd~d2 fdge|fdgf edBc|dBBA Bcde|fdgf ~e3g|
faaf edBc|dBBA BAFE|D2DC DEFA|BFAF DEDB,||
